X:1
T:Barbican, 87.87.77
T:Barbican, 87.87.77
T:L. E. M., 1891
T:Public Domain Courtesy of the Cyber Hymnal™
C:L. E. M., 1891
Z:Public Domain
Z:Courtesy of the Cyber Hymnal™
%%score ( 1 2 ) ( 3 4 )
L:1/8
Q:1/4=100
M:6/8
K:F
V:1 treble 
V:2 treble 
V:3 bass 
V:4 bass 
V:1
 [FA]2 [FA] [EB]2 [EB] | [DA]2 [^CG] [DF]2 D | [FA]2 [Fd] [FA]2 [FA] | (AG)[DF] [^CE]3 | %4
 [FA]2 [FA] [EB]2 [EB] | [DA]2 [^CG] [DF]2 D | (DE)[DF] [DG]2 [DG] | [D^G]2 [DG] !fermata![^CA]3 | %8
 [FA]2 [Fd] [Af]2 [Fd] | (ed)[GB] [FA]3 | [Fd]2 [GB] [FA]2 [DF] | (AG)[CE] [A,D]3 |] %12
V:2
 x6 | x5 D | x6 | E2 x4 | x6 | x5 D | D2 x4 | x6 | x6 | G2 x4 | x6 | C2 x4 |] %12
V:3
 [D,A,]2 [D,A,] [^C,G,]2 [C,G,] | [D,F,]2 [A,,A,] [D,A,]2 [D,F,] | [D,D]2 [D,A,] [D,D]2 [D,A,] | %3
 [^C,A,]2 [D,A,] [A,,A,]3 | [D,A,]2 [D,A,] [^C,G,]2 [C,G,] | [D,F,]2 [A,,A,] [D,A,]2 [D,F,] | %6
 (F,G,)[D,A,] [B,,B,]2 [B,,B,] | [B,,F,]2 [B,,F,] !fermata![A,,E,]3 | [D,D]2 [D,D] [D,A,]2 [D,D] | %9
 [G,B,]2 [G,D] [D,D]3 | [D,A,]2 (B,/C/) [D,D]2 [D,A,] | [A,,E,]2 [A,,G,] [D,F,]3 |] %12
V:4
 x6 | x6 | x6 | x6 | x6 | x6 | D,2 x4 | x6 | x6 | x6 | x2 D, x3 | x6 |] %12

